X: 7
T: The Tempest
R: reel
M: 4/4
L: 1/8
K: Cmaj
|:d2 cA GE E2|DEGE cE E2|AdcA GEcE|EDCD EDDc|
dBcA GE E2|DG G2 AE E2|DEGA ABcE|EDCE D3 c:|
|:d3 B cAGc|AdcA GE E2|dged cdeg|edcA d3 g|
e2 dg edcA|cAGc AE E2|DEGA ABcE|EDCE D3 c:|


Tune 1004	Setting 14220

